X:121
T:PGMLK- Douchig for Sort [Pretty girls milking the cow]
S:O'Farrell's National Irish Music, 1804
L:1/8
M:3/8
K:Am
A/B/|cec|BdB|AGG|cec|BdB|A2B|cec|BdB|AGE|\
GED|EAA/B/|A2||B|c3/2d/e/f/|ged/c/|BGB|c3/2d/e|egf|a2b/a/|\
gee|d3/2e/d/c/|BGB|cBA|EAG|A2|]

